src/images/svg/be-square/professional-guidance.svg

<svg width="64" height="64" viewBox="0 0 64 64" fill="none" xmlns="http://www.w3.org/2000/svg">
<path fill-rule="evenodd" clip-rule="evenodd" d="M58.1333 14.2667H56.2666V10.5333C56.2654 9.50288 55.4303 8.6678 54.3999 8.66659H41.0783C38.9822 5.73775 35.6017 4 32 4C28.3983 4 25.0178 5.73775 22.9217 8.6667H9.6C8.56958 8.66791 7.7345 9.50288 7.7333 10.5334V14.2667H5.8667C4.83617 14.2678 4.0012 15.1029 4 16.1333V54.4C4.0012 55.4304 4.83617 56.2655 5.8667 56.2667H26.1202C27.1911 58.5453 29.4822 60 32 60C34.5178 60 36.8089 58.5453 37.8798 56.2667H58.1333C59.1637 56.2655 59.9988 55.4305 60 54.4V16.1333C59.9988 15.1029 59.1638 14.2678 58.1333 14.2667ZM42.1684 10.5333H54.4V41.3333H37.6C35.8423 41.3331 34.1593 42.0436 32.9333 43.3031V26.3527C36.5717 26.0582 39.8365 24.0041 41.6768 20.8517C43.5172 17.6993 43.7007 13.8464 42.1684 10.5333ZM49.5467 47.8667H54.4V50.6667H32.9333V47.8667C32.9364 45.2906 35.0239 43.2031 37.6 43.2H54.4V46H49.5467C49.0312 46 48.6134 46.4179 48.6134 46.9333C48.6134 47.4488 49.0312 47.8667 49.5467 47.8667ZM32 5.8667C37.1546 5.8667 41.3333 10.0454 41.3333 15.2C41.3333 20.3546 37.1546 24.5333 32 24.5333C26.8454 24.5333 22.6667 20.3546 22.6667 15.2C22.6726 10.0478 26.8478 5.87261 32 5.8667ZM9.6 10.5333H21.8316C20.2993 13.8464 20.4827 17.6992 22.323 20.8517C24.1634 24.0041 27.4282 26.0582 31.0666 26.3527V43.3031C29.8407 42.0436 28.1577 41.3331 26.3999 41.3333H9.6V10.5333ZM9.6 47.8667H14.64C15.1555 47.8667 15.5733 47.4488 15.5733 46.9334C15.5733 46.4179 15.1554 46.0001 14.64 46.0001H9.6V43.2001H26.4C28.9761 43.2032 31.0636 45.2907 31.0667 47.8668V50.6668H9.6V47.8667ZM58.1333 54.4H37.2737C37.2685 54.4 37.2637 54.4014 37.2589 54.4029C37.2543 54.4043 37.2497 54.4056 37.2448 54.4058C37.1787 54.4117 37.1134 54.4248 37.0502 54.4451C36.9399 54.4549 36.8361 54.5015 36.7556 54.5775C36.6508 54.6284 36.5663 54.7133 36.5159 54.8183C36.4726 54.8747 36.4361 54.9362 36.4073 55.0012C36.4062 55.0042 36.4046 55.0068 36.4029 55.0093L36.3998 55.0137L36.3981 55.0161L36.3953 55.0203C36.3941 55.0223 36.393 55.0244 36.3922 55.0266C35.7345 56.8884 33.9744 58.1333 31.9999 58.1333C30.0253 58.1333 28.2653 56.8884 27.6076 55.0266C27.6059 55.0216 27.6029 55.0175 27.5999 55.0134L27.5999 55.0134C27.5971 55.0096 27.5943 55.0058 27.5925 55.0012C27.5642 54.9378 27.5287 54.8777 27.4867 54.8224C27.4386 54.7197 27.3573 54.6361 27.2558 54.5854C27.2102 54.5479 27.1611 54.5148 27.1093 54.4867C27.0605 54.4693 27.0103 54.4561 26.9593 54.4471C26.8928 54.4254 26.824 54.4115 26.7543 54.4057C26.7494 54.4055 26.7449 54.4042 26.7404 54.4028L26.7401 54.4027C26.738 54.4021 26.7359 54.4014 26.7337 54.4009C26.7312 54.4004 26.7287 54.4 26.726 54.4H5.8667V16.1333H7.73341V50.6666C7.73461 51.697 8.56958 52.5321 9.60011 52.5333H54.4001C55.4305 52.5321 56.2656 51.6971 56.2668 50.6666V16.1333H58.1335L58.1333 54.4ZM31.9959 21.7337C32.2434 21.7338 32.4809 21.6354 32.656 21.4603C32.831 21.2853 32.9293 21.0479 32.9293 20.8003V13.3337C32.9293 12.8182 32.5115 12.4004 31.996 12.4004C31.4805 12.4004 31.0627 12.8182 31.0627 13.3337V20.8004C31.0626 21.0479 31.1609 21.2853 31.336 21.4604C31.5109 21.6354 31.7484 21.7338 31.9959 21.7337ZM32.656 10.261C32.4809 10.4361 32.2434 10.5344 31.9959 10.5343C31.7484 10.5344 31.5109 10.4361 31.336 10.2611C31.1609 10.086 31.0626 9.84855 31.0627 9.60103V8.66762C31.0627 8.15214 31.4805 7.73433 31.996 7.73433C32.5115 7.73433 32.9293 8.15214 32.9293 8.66762V9.60092C32.9293 9.84855 32.831 10.086 32.656 10.261ZM12.2133 33.12C12.2133 32.7076 12.5476 32.3733 12.96 32.3733H25.6533C26.0657 32.3733 26.4 32.7076 26.4 33.12C26.4 33.5324 26.0657 33.8667 25.6533 33.8667H12.96C12.5476 33.8667 12.2133 33.5324 12.2133 33.12ZM12.96 28.64C12.5476 28.64 12.2133 28.9743 12.2133 29.3867C12.2133 29.799 12.5476 30.1333 12.96 30.1333H18.9333C19.3457 30.1333 19.68 29.799 19.68 29.3867C19.68 28.9743 19.3457 28.64 18.9333 28.64H12.96ZM36.8533 33.12C36.8533 32.7076 37.1876 32.3733 37.6 32.3733H50.2933C50.7057 32.3733 51.04 32.7076 51.04 33.12C51.04 33.5324 50.7057 33.8667 50.2933 33.8667H37.6C37.1876 33.8667 36.8533 33.5324 36.8533 33.12ZM44.32 28.64C43.9076 28.64 43.5733 28.9743 43.5733 29.3867C43.5733 29.799 43.9076 30.1333 44.32 30.1333H50.2933C50.7057 30.1333 51.04 29.799 51.04 29.3867C51.04 28.9743 50.7057 28.64 50.2933 28.64H44.32ZM12.2133 36.8533C12.2133 36.441 12.5476 36.1067 12.96 36.1067H25.6533C26.0657 36.1067 26.4 36.441 26.4 36.8533C26.4 37.2657 26.0657 37.6 25.6533 37.6H12.96C12.5476 37.6 12.2133 37.2657 12.2133 36.8533ZM37.6 36.1067C37.1876 36.1067 36.8533 36.441 36.8533 36.8533C36.8533 37.2657 37.1876 37.6 37.6 37.6H50.2933C50.7057 37.6 51.04 37.2657 51.04 36.8533C51.04 36.441 50.7057 36.1067 50.2933 36.1067H37.6Z" fill="#FF444F"/>
</svg>

<svg xmlns="http://www.w3.org/2000/svg" width="64" height="64" fill="none"  xmlns:v="https://vecta.io/nano"><path fill-rule="evenodd" d="M58.133 14.267h-1.867v-3.733A1.87 1.87 0 0 0 54.4 8.667H41.078C38.982 5.738 35.602 4 32 4s-6.982 1.738-9.078 4.667H9.6a1.87 1.87 0 0 0-1.867 1.867v3.733H5.867A1.87 1.87 0 0 0 4 16.133V54.4a1.87 1.87 0 0 0 1.867 1.867H26.12C27.191 58.545 29.482 60 32 60s4.809-1.455 5.88-3.733h20.253A1.87 1.87 0 0 0 60 54.4V16.133a1.87 1.87 0 0 0-1.867-1.867zm-15.965-3.733H54.4v30.8H37.6a6.51 6.51 0 0 0-4.667 1.97v-16.95a11.17 11.17 0 0 0 9.235-15.819zm7.378 37.333H54.4v2.8H32.933v-2.8c.003-2.576 2.091-4.664 4.667-4.667h16.8V46h-4.853c-.516 0-.933.418-.933.933s.418.933.933.933zM32 5.867c5.155 0 9.333 4.179 9.333 9.333S37.155 24.533 32 24.533s-9.333-4.179-9.333-9.333c.006-5.152 4.181-9.327 9.333-9.333zM9.6 10.533h12.232a11.17 11.17 0 0 0 9.235 15.819v16.95a6.51 6.51 0 0 0-4.667-1.97H9.6v-30.8zm0 37.333h5.04c.515 0 .933-.418.933-.933S15.155 46 14.64 46H9.6v-2.8h16.8c2.576.003 4.664 2.091 4.667 4.667v2.8H9.6v-2.8zM58.133 54.4h-20.86c-.019.004-.024.006-.029.006-.066.006-.131.019-.195.039-.11.01-.214.056-.295.132-.105.051-.189.136-.24.241a.9.9 0 0 0-.109.183l-.008.013-.002.002-.003.004c-.661 1.868-2.421 3.113-4.395 3.113a4.66 4.66 0 0 1-4.392-3.107l-.008-.013c-.036-.076-.071-.136-.113-.191-.048-.103-.129-.186-.231-.237-.046-.038-.095-.071-.146-.099-.049-.017-.099-.031-.15-.04a.9.9 0 0 0-.205-.041l-.014-.003L5.867 54.4V16.133h1.867v34.533A1.87 1.87 0 0 0 9.6 52.533h44.8a1.87 1.87 0 0 0 1.867-1.867V16.133h1.867V54.4zM31.996 21.734c.248 0 .485-.098.66-.273s.273-.412.273-.66v-7.467c0-.516-.418-.933-.933-.933s-.933.418-.933.933V20.8c0 .247.098.485.273.66s.412.273.66.273zm.66-11.473c-.175.175-.413.273-.66.273s-.485-.098-.66-.273-.273-.413-.273-.66v-.933c0-.515.418-.933.933-.933s.933.418.933.933v.933c0 .248-.098.485-.273.66zM12.213 33.12c0-.412.334-.747.747-.747h12.693c.412 0 .747.334.747.747s-.334.747-.747.747H12.96c-.412 0-.747-.334-.747-.747zm.747-4.48c-.412 0-.747.334-.747.747s.334.747.747.747h5.973c.412 0 .747-.334.747-.747s-.334-.747-.747-.747H12.96zm23.893 4.48c0-.412.334-.747.747-.747h12.693c.412 0 .747.334.747.747s-.334.747-.747.747H37.6c-.412 0-.747-.334-.747-.747zm7.467-4.48c-.412 0-.747.334-.747.747s.334.747.747.747h5.973c.412 0 .747-.334.747-.747s-.334-.747-.747-.747H44.32zm-32.107 8.213c0-.412.334-.747.747-.747h12.693c.412 0 .747.334.747.747s-.334.747-.747.747H12.96c-.412 0-.747-.334-.747-.747zm25.387-.747c-.412 0-.747.334-.747.747s.334.747.747.747h12.693c.412 0 .747-.334.747-.747s-.334-.747-.747-.747H37.6z" fill="#ff444f"/></svg>
